X: 98
T: no name
R: polka
Z: id:hn-polka-98
M: 2/4
L: 1/8
R: polka
K: Dmix
|: FG |\
A>A AB | cA FG | AB c/B/A | G2 FG |
A>A AB | cA fg | ed AF | G2:|
|: fg |\
a>g fa | ge fg | ag fa | g2 fg | 
a>g fa | ge gf | ed AF | G2 :|
